X:153
T:Killinure Reel*, The  
B:CRE2.224 (gan ainm)
F:file ID: cre.2/153killi
S:Paddy Taylor
Q:180
L:1/8
M:4/4
R:reel
K:Am
D|EGAB c3d|eeed Bcd^f|eAAA BGGG|AcBA GEDA|
EAAB cBcd|e2ed (3Bcd e^f|eAAA BAGE|1 AcBG A3:|2\
AcBG A3 z||
|:eaag ed (3Bcd|eaag e2 d^f|eAAA BGGG|AcBA GEDA|
[1 eaag ed (3Bcd|e2 ag e^fdf|eAAA BAGE|AcBG A4:|
[2 EAAB cBcd|eeed Bc d2|eA (3AAA BAGE|AcBG A4|]

%%%

